X:12
T:CelticNymph(the)
R:reel
C:David Milligan
D:"The big day in" by Simon thoumire & David Milligan
Z:Transcribed by Lionel Gueganton
L:1/8
M:4/4
K:Bb
|: BdcABFDF    | GAB/A/GFfed | c/c/ccdegfd | ecdBcAFA     | BdcABFDF    | GAB/A/GFfed |
   c/c/ccdegfd |1 cAFAB3A   :|2 cAFAB4     |: ABcdecc/c/c | ecc/c/cecAc | dfecdfec    |
   defbfdcB    | ABcdecc/c/c | ecc/c/cecAc | dfegfdec     | dBc/B/AB4  :|

